X: 40346
T: Tom Byrne's
R: reel
M: 4/4
K: Dmajor
|:AG|F/G/A DE F2 de|f/e/d ec dcBA|GBEF G2 ef|g/f/e fd ecAG|
FADE F2 de|f/e/d ec dcBA|GBEF GBdB|A/G/F GE D2:|
|:e/f/g|afdf gece|dAFA BGEG|FDFA dfaf|g/f/e fd ec A2|
afdf gece|dAFA|BGEG|FDFA dfaf|gece d2:|

